assets/svg/new.svg

<?xml version="1.0" encoding="UTF-8"?>
<svg width="1000px" height="1000px" viewBox="0 0 1000 1000" version="1.1" xmlns="http://www.w3.org/2000/svg" xmlns:xlink="http://www.w3.org/1999/xlink">
    <!-- Generator: sketchtool 52.4 (67378) - http://www.bohemiancoding.com/sketch -->
    <title>new</title>
    <desc>Created with sketchtool.</desc>
    <g id="旧版图标(剩余)" stroke="none" stroke-width="1" fill="none" fill-rule="evenodd">
        <path d="M846,1000 L158,1000 C88.964,1000 33,944.036 33,875 L33,0 L971,0 L971,875 C971,944.036 915.036,1000 846,1000 Z M111.5669,623.4048 L171.3299,623.4048 L171.3299,477.9478 L172.7039,477.9478 L278.3189,623.4048 L328.1209,623.4048 L328.1209,375.5948 L268.3589,375.5948 L268.3589,519.6788 L266.9839,519.6788 L161.8839,375.5948 L111.5669,375.5948 L111.5669,623.4048 Z M535.4019,623.4048 L535.4019,572.5718 L428.5849,572.5718 L428.5849,522.0828 L529.0479,522.0828 L529.0479,475.7158 L428.5849,475.7158 L428.5849,426.4278 L535.4019,426.4278 L535.4019,375.5948 L365.5589,375.5948 L365.5589,623.4048 L535.4019,623.4048 Z M683.4351,623.4048 L725.1661,468.6748 L726.5401,468.6748 L768.2701,623.4048 L827.6901,623.4048 L892.4331,375.5948 L827.3471,375.5948 L793.8591,543.0338 L792.4851,543.0338 L751.0981,375.5948 L700.6081,375.5948 L659.2211,543.0338 L657.8471,543.0338 L624.3591,375.5948 L559.2721,375.5948 L624.0161,623.4048 L683.4351,623.4048 Z" id="Combined-Shape" fill="#DC4141"></path>
    </g>
</svg>

<svg width="1000" height="1000" xmlns="http://www.w3.org/2000/svg"><path d="M846 1000H158c-69.036 0-125-55.964-125-125V0h938v875c0 69.036-55.964 125-125 125zM111.567 623.405h59.763V477.948h1.374l105.615 145.457h49.802v-247.81h-59.762v144.084h-1.375l-105.1-144.084h-50.317v247.81zm423.835 0v-50.833H428.585v-50.49h100.463v-46.366H428.585v-49.288h106.817v-50.833H365.559v247.81h169.843zm148.033 0l41.731-154.73h1.374l41.73 154.73h59.42l64.743-247.81h-65.086L793.86 543.034h-1.374l-41.387-167.44h-50.49l-41.387 167.44h-1.374l-33.488-167.44h-65.087l64.744 247.81h59.42z" fill="#DC4141" fill-rule="evenodd"/></svg>
